frontend/public/svg/food/drink.svg

<svg width="156" height="160" viewBox="0 0 156 160" fill="none" xmlns="http://www.w3.org/2000/svg">
<g clip-path="url(#clip0)">
<path d="M155.491 33.0349C155.313 32.587 155.169 32.1266 155.062 31.6569C153.921 25.7382 150.752 20.4023 146.101 16.5681C137.236 9.1397 124.47 8.33851 112.784 14.4805C106.243 17.9276 101.117 23.5587 98.299 30.3942L58.7093 31.2473L53.383 23.8961C48.6416 17.3531 44.0429 11.0063 39.4236 4.67458C38.5741 3.39473 37.3688 2.39099 35.9567 1.78643C34.5446 1.18187 32.9869 1.00308 31.4745 1.27175C30.3355 1.39325 29.1882 1.41496 28.0454 1.33712C27.6548 1.32334 27.2648 1.30908 26.8769 1.30187C23.9207 1.24673 20.9635 1.18878 18.0061 1.12753C14.1118 1.04877 10.2177 0.973031 6.3234 0.901271C6.19213 0.901271 6.05427 0.893718 5.91447 0.887811C5.12681 0.766525 4.32104 0.902896 3.61729 1.27687C2.01779 2.4189 1.23544 3.39346 1.15602 4.34384C1.0556 5.55413 2.26079 7.13958 3.36475 7.69156C4.75666 8.26657 6.24738 8.5656 7.75337 8.57223L7.85851 8.57925C14.8971 9.06823 21.9143 9.5081 28.7133 9.88615C29.3834 9.89679 30.0383 10.0864 30.6105 10.4355C31.1827 10.7845 31.6514 11.2807 31.9674 11.8718C33.9745 14.9428 36.0908 18.01 38.1372 20.9773C39.2989 22.6621 40.4613 24.3474 41.6092 26.0408C42.5019 27.3535 43.3632 28.7045 44.3609 30.266C44.6726 30.7523 44.9976 31.261 45.3415 31.7972C44.9477 31.7972 44.5788 31.7922 44.2218 31.7895C42.8435 31.7803 41.6546 31.7713 40.485 31.8107L37.3347 31.9126C32.846 32.0563 28.2042 32.2054 23.642 32.483C20.9563 32.6451 18.8891 34.0098 17.9702 36.2243C16.9758 38.6225 18.4519 40.4636 19.6373 41.9416L19.92 42.2967C20.1307 42.5592 20.3577 42.8002 20.5763 43.03L20.6366 43.0953C22.0367 44.5634 23.4388 46.0293 24.8438 47.4929C27.8124 50.5856 30.8821 53.7839 33.8396 56.981C39.005 62.5638 44.1608 68.1568 49.3064 73.7586C55.4347 80.4198 61.7718 87.3067 68.0326 94.0565C68.5459 94.5724 68.9233 95.2071 69.1313 95.9041C69.3394 96.6018 69.3709 97.3395 69.2239 98.0523C68.6752 102.397 68.3483 105.917 68.1941 109.128C67.8482 116.351 67.5436 123.695 67.2489 130.798C67.0612 135.313 66.8696 139.828 66.6753 144.343C66.6346 145.27 66.5127 146.197 66.3841 147.178C66.3473 147.454 66.3112 147.734 66.2757 148.016H64.0863C61.8094 148.011 59.6521 148.007 57.4941 148.03C56.4336 148 55.3738 148.095 54.3354 148.313C51.7442 148.958 51.1395 150.624 51.089 151.907C51.0135 153.815 52.0079 155.161 53.9573 155.8C54.7487 156.068 55.5678 156.246 56.3993 156.33C66.2614 157.212 74.5422 157.94 82.898 158.627C83.0214 158.637 83.1468 158.641 83.2715 158.641C84.126 158.607 84.9714 158.453 85.7826 158.182C86.8669 157.923 87.8291 157.299 88.5077 156.414C89.187 155.53 89.5415 154.44 89.5126 153.325C89.5552 152.196 89.1765 151.09 88.4487 150.226C87.7214 149.361 86.6976 148.798 85.5772 148.648C84.1759 148.439 82.7628 148.323 81.3458 148.3L80.8253 148.281C79.846 148.24 78.8773 148.25 77.8488 148.26L77.1885 148.265C77.2824 147.438 77.3854 146.639 77.4813 145.862C77.7438 143.766 77.9958 141.787 78.0496 139.803C78.3929 127.19 78.7716 112.303 78.9469 97.4996C78.9029 96.4941 79.0834 95.4919 79.4765 94.5652C79.869 93.6391 80.4637 92.8121 81.2165 92.1446C87.1891 86.4016 93.213 80.4132 99.1128 74.3467C102.464 70.9002 105.788 67.2897 109.001 63.7994C110.309 62.3765 111.625 60.9508 112.949 59.5217C118.768 64.7941 125.807 66.2494 134.45 63.9725C146.167 60.8877 153.129 53.8183 155.144 42.9697C155.219 42.669 155.332 42.3787 155.48 42.1064C155.561 41.9377 155.643 41.7693 155.714 41.5987C155.748 41.5154 155.765 41.4259 155.765 41.3359V33.9483C155.765 33.8767 155.754 33.8054 155.732 33.7374C155.661 33.5037 155.576 33.2706 155.491 33.0349ZM119.002 38.9189C113.976 45.7677 81.9601 78.5262 73.6633 85.1946L30.4925 40.0297L119.002 38.9189ZM122.946 48.148C124.719 46.0477 126.493 43.9414 128.268 41.8288C128.477 41.5807 128.691 41.3346 128.905 41.0898C129.535 40.4012 130.114 39.6687 130.64 38.8977C131.093 38.2533 131.403 37.5189 131.548 36.7447C131.694 35.9706 131.672 35.1747 131.484 34.4098C131.287 33.7387 130.947 33.1185 130.486 32.5926C130.025 32.0668 129.455 31.6475 128.815 31.3645C126.814 30.4791 124.655 30.0014 122.466 29.9589C118.973 29.8277 115.519 29.852 111.859 29.8775C110.737 29.8854 109.602 29.892 108.453 29.8968C109.799 27.7142 111.552 25.8108 113.617 24.2903C116.18 22.2365 119.173 20.7875 122.374 20.0524C125.575 19.3172 128.901 19.3143 132.104 20.044C140.263 21.761 145.198 28.8968 144.677 38.2247C144.579 40.4112 144.03 42.5539 143.066 44.5189C142.102 46.4838 140.743 48.229 139.074 49.6453C137.369 51.0704 135.389 52.129 133.256 52.7545C131.124 53.38 128.885 53.5591 126.68 53.2807C124.573 53.0412 122.931 52.2476 120.97 50.4933L122.946 48.148Z" fill="black"/>
</g>
<defs>
<clipPath id="clip0">
<rect width="154.896" height="158.834" fill="white" transform="translate(0.917725 0.463379)"/>
</clipPath>
</defs>
</svg>

<svg xmlns="http://www.w3.org/2000/svg" width="156" height="160" fill="none" viewBox="0 0 156 160"><g clip-path="url(#a)"><path fill="#000" d="M155.491 33.035a9.4 9.4 0 0 1-.429-1.378 25.9 25.9 0 0 0-8.961-15.089c-8.865-7.428-21.631-8.23-33.317-2.088a31.6 31.6 0 0 0-14.485 15.914l-39.59.853-5.326-7.35c-4.741-6.544-9.34-12.89-13.96-19.222a7.89 7.89 0 0 0-7.949-3.403 19.7 19.7 0 0 1-3.429.065q-.586-.023-1.168-.035-4.434-.083-8.87-.174Q12.163 1.008 6.322.9c-.13 0-.269-.007-.409-.013a3.7 3.7 0 0 0-2.297.389c-1.6 1.142-2.382 2.116-2.461 3.067-.1 1.21 1.105 2.796 2.209 3.348 1.392.575 2.882.874 4.388.88l.106.007c7.038.49 14.055.93 20.854 1.307a3.76 3.76 0 0 1 3.254 1.986c2.008 3.07 4.124 6.138 6.17 9.105a755 755 0 0 1 3.472 5.064c.893 1.313 1.754 2.663 2.752 4.225l.98 1.531c-.393 0-.762-.005-1.12-.008-1.377-.009-2.566-.018-3.736.022l-3.15.102c-4.489.143-9.13.292-13.693.57-2.686.162-4.753 1.527-5.672 3.741-.994 2.399.482 4.24 1.667 5.718l.283.355c.21.262.438.503.656.733l.06.065q2.1 2.202 4.208 4.398c2.968 3.093 6.038 6.29 8.996 9.488a6326 6326 0 0 1 15.466 16.778 6814 6814 0 0 0 18.727 20.298 4.4 4.4 0 0 1 1.19 3.995c-.548 4.345-.875 7.865-1.029 11.076-.346 7.223-.65 14.567-.945 21.67q-.282 6.773-.574 13.545c-.04.927-.162 1.854-.29 2.835q-.056.415-.11.838h-2.189a513 513 0 0 0-6.592.014 13.5 13.5 0 0 0-3.159.283c-2.59.645-3.196 2.311-3.246 3.594-.075 1.908.919 3.254 2.868 3.893.792.268 1.61.446 2.442.53 9.862.882 18.143 1.61 26.499 2.297q.185.014.374.014a9 9 0 0 0 2.51-.459 4.86 4.86 0 0 0 3.73-4.857 4.545 4.545 0 0 0-3.935-4.677 32 32 0 0 0-4.231-.348l-.52-.019c-.98-.041-1.949-.031-2.977-.021l-.66.005c.093-.827.196-1.626.292-2.403.263-2.096.515-4.075.569-6.059.343-12.613.722-27.5.897-42.303a6.76 6.76 0 0 1 2.27-5.355 757 757 0 0 0 17.896-17.798c3.351-3.447 6.675-7.057 9.888-10.548a1496 1496 0 0 1 3.948-4.277c5.819 5.272 12.858 6.727 21.501 4.45 11.717-3.084 18.679-10.154 20.694-21.002q.113-.453.336-.864c.081-.168.163-.337.234-.507a.7.7 0 0 0 .051-.263v-7.388a.7.7 0 0 0-.033-.21c-.071-.234-.156-.467-.241-.703m-36.489 5.884c-5.026 6.849-37.042 39.607-45.339 46.276L30.493 40.03zm3.944 9.229q2.66-3.15 5.322-6.32.315-.37.637-.738a20 20 0 0 0 1.735-2.192 5.5 5.5 0 0 0 .844-4.488 4.81 4.81 0 0 0-2.669-3.045 16.5 16.5 0 0 0-6.349-1.406c-3.493-.131-6.947-.107-10.607-.081q-1.683.011-3.406.019a20 20 0 0 1 5.164-5.607 21.81 21.81 0 0 1 18.487-4.246c8.159 1.717 13.094 8.853 12.573 18.18a15.9 15.9 0 0 1-5.603 11.421 16.16 16.16 0 0 1-12.394 3.636c-2.107-.24-3.749-1.033-5.71-2.788z"/></g><defs><clipPath id="a"><path fill="#fff" d="M.918.463h154.896v158.834H.918z"/></clipPath></defs></svg>
